**kern	**kern	**dynam
*part1	*part1	*part1
*staff2	*staff1	*
*I"Piano	*	*
*clefF4	*clefG2	*
*k[f#c#g#]	*k[f#c#g#]	*
=1	=1	=1
4EE	4r	.
4r	4E: 4A: 4c#:	.
4r	4E: 4A: 4c#:	.
=	=	=
4AA	4r	.
4r	4E: 4A: 4c#:	.
4r	4E: 4A: 4c#:	.
=	=	=
4EE	4r	.
4r	4E: 4A: 4c#:	.
4r	4E: 4A: 4c#:	.
=	=	=
*	*^	*
2.AA 2.E	2.cc#	4r	p
.	.	4c# 4e 4a	.
.	.	4c# 4e 4a	.
=	=	=	=
2.AA#X 2.E	4cc#	4r	.
.	4b#X	4c# 4e 4f##X	.
.	4cc#	4c# 4e 4f##	.
=	=	=	=
2.BB 2.E	2.ee	4r	.
.	.	4d 4e 4g#	.
.	.	4d 4e 4g#	.
=	=	=	=
2.EE: 2.G#:	2.g#	4r	.
.	.	4d 4e	.
.	.	4d 4e	.
*	*v	*v	*
=	=	=
*-	*-	*-
!!!system-decoration: {(s1,s2)}
